src/standard/people/sys-admin.svg

<svg xmlns="http://www.w3.org/2000/svg" viewBox="0 0 36 36">
  <circle cx="27" cy="22.99" r=".62"/>
  <path d="M31 17.38H5a.61.61 0 0 0-.62.62v10a.61.61 0 0 0 .62.62h26a.61.61 0 0 0 .62-.62V18a.61.61 0 0 0-.62-.62Zm-.62 10H5.62v-8.76h24.76Z"/>
  <path d="M9 23.62h6a.62.62 0 0 0 0-1.24H9a.62.62 0 0 0 0 1.24Zm15-13.24h-7.46a2.62 2.62 0 1 0 0 1.24h2.84V13a.62.62 0 1 0 1.24 0v-1.38h.76V13a.62.62 0 1 0 1.24 0v-1.38h.76V12a.62.62 0 1 0 1.24 0v-1a.61.61 0 0 0-.62-.62Zm-10 2A1.38 1.38 0 1 1 15.38 11 1.38 1.38 0 0 1 14 12.38Z"/>
</svg>

<svg id="ec9e3690-9f9c-4bb1-b6d6-8fcbe007a9ad" data-name="Icon" xmlns="http://www.w3.org/2000/svg" viewBox="0 0 36 36">
  <circle cx="27" cy="22.99" r="0.62"/>
  <g>
    <path d="M31,17.38H5a.61.61,0,0,0-.62.62V28a.61.61,0,0,0,.62.62H31a.61.61,0,0,0,.62-.62V18A.61.61,0,0,0,31,17.38Zm-.62,10H5.62V18.62H30.38Z"/>
    <path d="M9,23.62h6a.62.62,0,0,0,0-1.24H9a.62.62,0,0,0,0,1.24Z"/>
  </g>
  <path d="M24,10.38H16.54a2.62,2.62,0,1,0,0,1.24h2.84V13a.62.62,0,1,0,1.24,0V11.62h.76V13a.62.62,0,1,0,1.24,0V11.62h.76V12a.62.62,0,1,0,1.24,0V11A.61.61,0,0,0,24,10.38Zm-10,2A1.38,1.38,0,1,1,15.38,11,1.38,1.38,0,0,1,14,12.38Z"/>
</svg>
